X:1
T:Altro non e'l mi amor
T:Altro non e'l mi amor
T:Jhan Gero
T:Source : Trium vocum cantiones---Nürnberg---J.Petreius---1541. Editor : André Vierendeels (21/04/16).
T:Notes : Original clefs : C3, C4, F4 Editorial accidentals above the staff Original note values have been halved Square bracket indicates ligature
T:©
T:©
T:©
T:©
T:©
C:Jhan Gero
Z:©
%%score [ 1 2 3 ]
L:1/8
Q:1/4=120
M:2/2
K:F
V:1 treble-8 nm="Tenor 1" snm="T 1"
V:2 treble-8 nm="Tenor 2" snm="T 2"
V:3 bass nm="Bass" snm="B"
V:1
 A4 d2 d2 | e2 e2 c4 | f4 g3 f | ed c4 f2 | d2 g3 fed | e2 d4 c2 | d4 z2 d2 | f2 f2 d2 d2 | %8
w: Al- tro non|e'l m'a- mor|del pa- ra-|di- * * *|||so, che'l|pa- ra- di- s'e|
 c2 c2 d2 f2- | f2 e2 d2 g2- | gf f4 e2 | f4 z2 f2 | f2 f2 d2 d2 | c2 c2 d2 f2- | f2 e2 d2 g2- | %15
w: un sol som- mo|_ di- let _|_ _ _ _|to, qual|prend' in ve- der|Dio cias- cun e-|* let- * *|
 gf f4 e2 | f4 c4 | c2 c2 d4 | d2 e4 e2 | f4 d2 g2- | gfed c2 f2 | e2 d4 c2 | d8- | d4 z4 | %24
w: |to, ne|al- tro- gau-|di'e nell' e-|ter- no ri-|||so,|_|
 d4 d2 d2 | c2 c2 d3 c | B4 A4- | A4 c4 | A2 B2 G4 | F4 c4 | c2 c2 c2 c2 | f8 | e4 f4 | e2 c2 d4 | %34
w: a- dun- qu'il|pa- ra- di- *|* so|_ e'l|mi'a- mor ve-|ro, che|con som- ma le-|ti-|ti- a'l|cor u- ni-|
 c8 | A4 c3 d | e2 f2 g4 | d4 f3 e | d2 c2 d2 e2- | ed d4 c2 | d8 | c8 | c2 c2 d2 f2 | %43
w: ta,|ogn' hor veg-|gio'l mio sol|va- go _|_ et al- te-||ro,|hai,|pos- san- za d'a-|
 e2 c2 d2 e2 | f4 g4 | c2 f4 e2 | f4 z4 | c4 d2 d2 | e2 e2 f3 e | d2 c2 d2 e2- | ed d4 c2 | d8 |] %52
w: mor don- qu'in- fi-|ni- *||ta,|che'l pa- ra|di- s'an- chor _|_ con- ce- d'in|_ _ vi- *|ta.|
V:2
 z4 D4 | G2 G2 A2 A2 | F2 B2 G2 G2 | c3 B A4 | B3 A G4- | G2 F2 E4 | D8- | D4 z4 | A4 B2 B2 | %9
w: Al-|tro non e'l m'a-|mor del pa- ra-|di- * *|||so,|_|che'l pa- ra|
 G2 G2 F2 G2 | A2 B2 G4 | F8- | F4 z4 | A4 B2 B2 | G2 G2 F2 G2 | A2 B2 G4 | F4 z4 | F4 F2 F2 | %18
w: di- s'e'un sol som-|mo di- let-|to,|_|qual prend' in|ve- der Dio cias-|cun di- let-|to,|ne al- tro|
 G4 G2 A2- | A2 A2 B4 | G4 A4 | G3 F E4 | D8 | z4 A4 | A2 A2 G2 G2 | A4 D4- | D4 F4 | F3 G A2 G2- | %28
w: gau- di'e nell'|_ e- ter-|no ri-||so,|a-|dun- qu'il pa- ra-|di- so|_ e'l|mi'a- * * mor|
 GF F4 E2 | F4 A4 | A2 A2 A2 A2 | F3 G A2 B2 | G2 c2 A2 B2- | BA A4 G2 | A4 E4 | F3 G A4- | %36
w: _ _ ve- *|ro, che|con som- ma le|ti- * ti- a'l|cor u- ni- *||ta, ogn-|hor veg- gio'l|
 A2 A2 G4 | B8 | A3 G F2 E2 | F2 D2 E4 | D8 | A8 | F2 G2 A2 B2 | c2 A2 B2 G2- | GF F4 E2 | F4 G4 | %46
w: _ mio sol|va-|go _ _ et|al- te- *|ro,|hai,|pos- san- za d'a-|mor don- qu'in- fi|_ _ ni- *||
 F4 z2 G2 | A2 A2 B2 B2 | c3 B A4- | A2 G2 F2 G2- | GFED E4 | D8 |] %52
w: ta, che'l|pa- ra- di- s'an-|chor con- ce-|* d'in- vi- *||ta.|
V:3
"^#" z8 | z4 A,,4 | D,2 D,2 E,2 E,2 | C,4 F,4 | G,3 F, E,D, C,2- | C,2 D,2 A,,4 | D,8 | z4 D,4 | %8
w: |Al-|tro non e'l m'a-|mor del|pa- ra- di- * *||so,|che'l|
 F,2 F,2 D,2 D,2 | C,2 C,2 D,2 E,2 | F,2 D,2 C,4 | F,,8 | z4 F,4 | F,2 F,2 D,2 D,2 | %14
w: pa- ra- di- s'e|un sol som- mo|di- let- *|to,|qual|prend' in ve- der|
 C,2 C,2 D,2 E,2 | F,2 D,2 C,4 | F,,4 z2 F,,2 | F,,2 F,,2 B,,4 | G,,2 C,4 A,,2 | D,4 G,,4 | %20
w: Dio cias- cun e-|let- * *|to, ne|al- tro gau-|di'e nell' e-|ter- no|
 C,3 B,, A,,2 F,,2 | G,,4 A,,4 | D,4 z2 D,2 | D,2 D,2 C,2 C,2 | D,3 C, B,,4 | A,,2 A,,2 B,,3 A,, | %26
w: ri- * * *||so, a|don- qu'il pa- ra-|di- * *|so, e'l mi'a- mor|
 G,,4 F,,4- | F,,2 F,2 F,2 E,2 | F,2 D,2 C,4 | F,,4 F,4 | F,2 F,2 F,2 F,2 | D,8 | C,4 D,4 | %33
w: ve- ro,|_ e'l mi'a- mor|ve- * *|ro, che|con som- ma le-|ti-|a'l cor|
 C,2 A,,2 B,,4 |"^#" A,,8 | z4 A,,4 | C,2 D,2 E,3 F, | G,4 D,4 | F,3 E, D,2 C,2 | D,2 B,,2 A,,4 | %40
w: u- * ni-|ta,|ogn-|hor veg- gio'l mio|sol va|go _ _ et|al- te- *|
 D,8 | F,8 | F,2 E,2 D,2 D,2 | C,2 F,,2 B,,2 C,2 | A,,2 B,,2 G,,4 | F,,4 C,4 | %46
w: ro,|hai,|pos- san- za d'a-|mor don- qu'in- fi-|* * ni-|ta, che'l|
"^#" D,2 D,2 E,2 E,2 | F,3 E, D,4 | C,2 C,2 F,4- | F,2 E,2 D,2 C,2 | B,,4 A,,4 | D,8 |] %52
w: pa- ra di- s'an-|chor _ _|_ con- ce-|* d'in- vi- *||ta.|

